X:1
T:Title
%%score { ( 1 3 ) | ( 2 4 ) }
L:1/8
Q:1/4=92
M:4/4
K:Ab
V:1 treble nm="Grand Piano"
V:3 treble 
V:2 bass 
V:4 bass 
V:1
 [CE]2 [_CF]2 [=CE]3- [CE]/[Ec]/ | [Ec]>[DB] [CA]>[CG] [DF]2 [CE]2 | %2
w: Roger~M.~Hickman * * * *||
 [DF]2 [DF]2 [EA]3- [EA]/[EA]/ | z4 B4 | [=Ec]2 [_Ed]2 [Ec]3- [Ec]/[=EB]/ | %5
w: |||
 A>G A>[F=A] [FB]2 [EF]2 | [=DB]2 [Dc]2 [EB]3- [EB]/[EG]/ |[M:7/8] [EB]>[=DA][DG]>[DF] E3 | %8
w: |||
[M:1/4] d>c |[M:4/4] [EGB]3- [EGB]/[E_G=A]/ [E=GB]2 e>d | c3- c/_c/ =c2 c>c | B3- B/e/ g2 e2 | %12
w: ||||
[M:9/8] f>=d[Ac]- [Ac]/[Ad]/ [Ge]2- [Ge][DE]>[DE] | %13
w: |
[M:4/4] [CEA]3- [CEA]/[DEB]/ [Ec]>[CEA] [DEB]>[EAc] |[M:9/8] [DAd]3- [DAd] [A=d]2- [Ad][Ad]>[Ad] | %15
w: ||
[M:4/4] [Ae]>[Ac] A>d c>B A>G | [CA]6 z2 |] %17
w: ||
V:2
 [A,,E,]2 [A,,=D,]2 [A,,E,]3- [A,,E,]/[A,,A,]/ | %1
 [A,,A,]>[A,,A,] [A,,A,]>[A,,A,] [A,,A,]2 [A,,A,]2 | [D,A,]2 [D,A,]2 [C,A,]3- [C,A,]/[C,A,]/ | %3
 z4 [E,E]2 z2 | [C,G,]2 [B,,G,]2 [A,,A,]3- [A,,A,]/[C,G,]/ | %5
 [F,A,F]>[=E,C] [F,C]>[_E,C] [D,D]2 [C,=A,]2 | [B,,B,]2 [B,,A,]2 [E,G,]3- [E,G,]/[E,B,]/ | %7
[M:7/8] [B,,G,]>[B,,F,][B,,B,]>[B,,A,] [E,G,]3 |[M:1/4][K:treble] B>A | %9
[M:4/4][K:bass] E,3- E,/E,/ E,2[K:treble] G>B | [A,EA]3- [A,EA]/[A,=DG]/ [A,EA]2 [A,EA]>[A,EA] | %11
 [B,EG]3- [B,EG]/[B,EG]/ [B,EB]2 [B,EG]2 | %12
[M:9/8] [B,=DA]>[B,A][K:bass][B,,B,]- [B,,B,]/[B,,B,]/ [E,B,]2- [E,B,]E,>E, | %13
[M:4/4] A,,3- A,,/A,/ A,>A, G,>_G, |[M:9/8] F,3- F, [=E,_C]2- [E,C][E,C]>[E,C] | %15
[M:4/4] [E,C]>[E,E] [E,CE]>[E,B,E] [E,A,E]>[E,DE] [E,CE]>[E,B,D] | [A,,A,]6 z2 |] %17
V:3
 x8 | x8 | x8 | [=DB]>[DA] [DG]>[FA] z2 F2 | x8 | x8 | x8 |[M:7/8] x7 |[M:1/4] x2 |[M:4/4] x8 | %10
 x8 | x8 |[M:9/8] x9 |[M:4/4] x8 |[M:9/8] x9 |[M:4/4] x8 | x8 |] %17
V:4
 x8 | x8 | x8 | [B,,A,]>[B,,F,] [B,,B,]>[B,,A,] G,2- [D,G,]2 | x8 | x8 | x8 |[M:7/8] x7 | %8
[M:1/4][K:treble] x2 |[M:4/4][K:bass] x6[K:treble] x2 | x8 | x8 |[M:9/8] x2[K:bass] x7 | %13
[M:4/4] x8 |[M:9/8] x9 |[M:4/4] x8 | x8 |] %17

